Yaru++/categories/16/emoji-body.svg

<svg height="16" width="16" xmlns="http://www.w3.org/2000/svg">
  <path d="m8.9667969 1c-.6000972.0003399-1.0647884.5254041-.9921875 1.1210938.0155079.1264658.0237556.2534595.0253906.3808593-.0012021 1.5102293-.9592803 2.8335729-2.3759353 3.3123006-.1484613.0608796-.4137834.1878955-.5351191.1878955l-2.0889456-.0021492c-.554 0-1 .446-1 1v6c0 .554.446 1 1 1h2l6.015625.972656c.969901.167761 1.907625-.431975 2.162109-1.382812l1.660157-6.1953128c.323463-1.2082727-.587071-2.3945793-1.837891-2.3945312h-1.453125c.04644-.3143191.07422-.6449394.07422-1 0-.6374182-.07136-1.2132603-.226563-1.7128906-.077606-.2498152-.169878-.4812838-.347657-.7226563-.177779-.2413724-.528515-.5644531-1.046875-.5644531zm.2734375 1.1035156h.7597656c.041 0 .09461.028897.158203.1152344.06359.086338.127723.2229144.181641.3964844.107834.3471366.177734.8394378.177734 1.3847656 0 .5289542-.06754 1.002621-.169922 1.3476562-.02015.052439-.01797.1119979-.02539.1582032 0 .2761424.223858.4941406.5.4941406h2.177734c.593518.0002615 1.02518.563551.871094 1.1367188l-1.660156 6.1953122c-.12139.450287-.565875.733914-1.025391.654297l-5.185547-.89416v-6.2591896c1.839336-.6391247 3.1030278-2.3647839 3.1035156-4.3329784v-.00195c-.00134-.1264843-.0136486-.2510557-.0253906-.3769562zm-6.2402344 4.8964844h2v6h-2z" fill="#808080"/>
</svg>

<svg xmlns="http://www.w3.org/2000/svg" width="16" height="16" version="1.1">
 <path d="M 8.9667969,1 C 8.3666997,1.0003399 7.9020085,1.5254041 7.9746094,2.1210938 7.9901173,2.2475596 7.998365,2.3745533 8,2.5019531 7.9987979,4.0121824 7.0407197,5.335526 5.6240647,5.8142537 5.4756034,5.8751333 5.2102813,6.0021492 5.0889456,6.0021492 L 3,6 C 2.446,6 2,6.446 2,7 v 6 c 0,0.554 0.446,1 1,1 h 2 l 6.015625,0.972656 c 0.969901,0.167761 1.907625,-0.431975 2.162109,-1.382812 L 14.837891,7.3945312 C 15.161354,6.1862585 14.25082,4.9999519 13,5 h -1.453125 c 0.04644,-0.3143191 0.07422,-0.6449394 0.07422,-1 0,-0.6374182 -0.07136,-1.2132603 -0.226563,-1.7128906 C 11.316926,2.0372942 11.224654,1.8058256 11.046875,1.5644531 10.869096,1.3230807 10.51836,1 10,1 Z M 9.2402344,2.1035156 H 10 c 0.041,0 0.09461,0.028897 0.158203,0.1152344 0.06359,0.086338 0.127723,0.2229144 0.181641,0.3964844 C 10.447678,2.962371 10.517578,3.4546722 10.517578,4 c 0,0.5289542 -0.06754,1.002621 -0.169922,1.3476562 -0.02015,0.052439 -0.01797,0.1119979 -0.02539,0.1582032 0,0.2761424 0.223858,0.4941406 0.5,0.4941406 H 13 c 0.593518,2.615e-4 1.02518,0.563551 0.871094,1.1367188 l -1.660156,6.1953122 c -0.12139,0.450287 -0.565875,0.733914 -1.025391,0.654297 L 6,13.092168 V 6.8329784 C 7.839336,6.1938537 9.1030278,4.4681945 9.1035156,2.5 V 2.49805 C 9.1021756,2.3715657 9.089867,2.2469943 9.078125,2.1210938 Z M 3,7 h 2 v 6 H 3 Z" style="font-variation-settings:normal;fill:#808080"/>
</svg>
